!!!!SEGMENT: pl-sa--55-a-i-55--008_wanski-jan--missa-solemnissima-agnus-dei.krn
!!!cenid: 18xx:346
!!!COM: Wański, Jan
!!!COM-rismid: pe30003295
!!!CDT: ~1800-1888/04
!!!CNT: Polish
!!!OTL: Missa Solemnissima – Agnus Dei
!!!PDT: 1830
!!!AGN: Sacred; Mass
!!!SMS-siglum: PL-SA
!!!SMS-shelfmark: 55/A I 55
!!!SMS-shelfwork: 001-008 M
!!!SMS-variant:
!!!SMS-altvar:
!!!NIFC-rismid: 1001035335
!!!URL-scan: http://bc.bdsandomierz.pl/dlibra/publication/1331/edition/1299/content
!!!ONB-nifc: UWAGA: części Mszy: Kyrie, Christe, Gloria, Credo, Sanctus, Pleni Sunt, Benedictus, Agnus Dei
**kern	**fba	**dynam	**kern	**kern	**kern	**dynam	**kern	**text	**kern	**text	**kern	**text	**kern	**text	**kern	**kern
*part9	*	*	*part9	*part8	*part7	*part7	*part6	*part6	*part5	*part5	*part4	*part4	*part3	*part3	*part2	*part1
*staff10	*	*	*staff9	*staff8	*staff7	*	*staff6	*staff6	*staff5	*staff5	*staff4	*staff4	*staff3	*staff3	*staff2	*staff1
*I"Organo.	*	*	*	*I"Violino Secundo.	*I"Violino Primo.	*	*I"Baſso.	*	*I"Tenore.	*	*I"Alto.	*	*I"Canto.	*	*I"Cornu Secundo in C.	*I"Cornu Primo in C.
*I'org	*	*	*	*I'vl II	*I'vl I	*	*I'B	*	*I'T	*	*I'A	*	*I'C	*	*I'cor II	*I'cor I
*clefF4	*	*	*clefC1	*clefG2	*clefG2	*	*clefF4	*	*clefC4	*	*clefC3	*	*clefC1	*	*clefG2	*clefG2
*	*	*	*	*	*	*	*	*	*	*	*	*	*	*	*Trd0c0	*Trd0c0
*k[]	*	*	*k[]	*k[]	*k[]	*	*k[]	*	*k[]	*	*k[]	*	*k[]	*	*k[]	*k[]
*M3/4	*	*	*M3/4	*M3/4	*M3/4	*	*M3/4	*	*M3/4	*	*M3/4	*	*M3/4	*	*M3/4	*M3/4
*	*	*	*	*	*	*below	*	*	*	*	*	*	*	*	*	*
=1	=1	=1	=1	=1	=1	=1	=1	=1	=1	=1	=1	=1	=1	=1	=1	=1
!	!	!	!LO:TX:a:t=Solo.	!	!	!	!	!	!	!	!	!	!	!	!	!
!	!	!	!	!	!LO:SIC:o:s=:v:all\right	!	!LO:TX:a:t=18.	!	!LO:SIC:o:s=:v:all\right	!	!LO:SIC:o:s=:v:all\right	!	!LO:TX:a:t=18.	!	!LO:TX:a:t=18	!LO:TX:a:t=18.
!	!	!	!LO:TX:a:B:t=Andante.	!LO:TX:a:B:t=Andante.	!LO:TX:a:B:t=Andante.	!	!LO:TX:a:B:t=Andante.	!	!LO:TX:a:B:t=Andante.	!	!LO:TX:a:B:t=Andante.	!	!LO:TX:a:B:t=Andante.	!	!LO:TX:a:B:t=Andante	!LO:TX:a:B:t=Andante.
!	!	!	!	!	!	!	!LO:N:vis=00	!	!	!	!	!	!LO:N:vis=00	!	!LO:N:vis=00	!LO:N:vis=00
8C/L	5 3	.	2.ryy	4.e/	4.gg\	.	0.r	.	4.e\	A-	4.g\	A-	0.r	.	0.r	0.r
8C/	.	.	.	.	.	.	.	.	.	.	.	.	.	.	.	.
8C/	.	.	.	.	.	.	.	.	.	.	.	.	.	.	.	.
8C/	.	.	.	8d/	8ff\	.	.	.	8d\	.	8f\	.	.	.	.	.
8C/	.	.	.	4c/	4ee\	.	.	.	4c\	-gnus	4e\	-gnus	.	.	.	.
8C/J	.	.	.	.	.	.	.	.	.	.	.	.	.	.	.	.
=2	=2	=2	=2	=2	=2	=2	=2	=2	=2	=2	=2	=2	=2	=2	=2	=2
8C/L	4 2	.	2.ryy	8d/L	8ff\L	.	.	.	8d\L	De-	8f\L	De-	.	.	.	.
8C/	.	.	.	8e/J	8gg\J	.	.	.	8e\J	.	8g\J	.	.	.	.	.
8C/	5 3	.	.	4f/	4aa\	.	.	.	4f\	-I	4a\	-i	.	.	.	.
8C/	.	.	.	.	.	.	.	.	.	.	.	.	.	.	.	.
8C/	6 4	.	.	4r	4r	.	.	.	4r	.	4r	.	.	.	.	.
8C/J	.	.	.	.	.	.	.	.	.	.	.	.	.	.	.	.
=3	=3	=3	=3	=3	=3	=3	=3	=3	=3	=3	=3	=3	=3	=3	=3	=3
*tremolo	*	*	*	*	*	*	*	*	*	*	*	*	*	*	*	*
8C/L	.	.	2.ryy	2f/	2aa\	.	.	.	4f\	qui	4a\	qui	.	.	.	.
8C/	.	.	.	.	.	.	.	.	.	.	.	.	.	.	.	.
8C/	.	.	.	.	.	.	.	.	4f\	tol-	4a\	tol-	.	.	.	.
8C/	.	.	.	.	.	.	.	.	.	.	.	.	.	.	.	.
8C/	.	.	.	8a/L	8ccc\L	.	.	.	8f\	-lis	8cc\L	-lis	.	.	.	.
8C/J	.	.	.	8f/J	8aa\J	.	.	.	8f\	pec-	8a\J	pec-	.	.	.	.
*Xtremolo	*	*	*	*	*	*	*	*	*	*	*	*	*	*	*	*
=4	=4	=4	=4	=4	=4	=4	=4	=4	=4	=4	=4	=4	=4	=4	=4	=4
8C/L	5 3	.	2.ryy	8e/L	8gg\L	.	.	.	8e\L	-ca-	8g\L	-ca-	.	.	.	.
8C/	.	.	.	8d/J	8ff\J	.	.	.	8d\J	.	8f\J	.	.	.	.	.
8C/	4 2	.	.	4c/	4ee\	.	.	.	4c\	-ta	4e\	-ta	.	.	.	.
8C/	.	.	.	.	.	.	.	.	.	.	.	.	.	.	.	.
8C/	5 1	.	.	8r	8r	.	.	.	8r	.	8r	.	.	.	.	.
8C/J	.	.	.	8c/	8ee\	.	.	.	8c\	mun-	8e\	cata	.	.	.	.
=5	=5	=5	=5	=5	=5	=5	=5	=5	=5	=5	=5	=5	=5	=5	=5	=5
!	!	!	!LO:SIC:o:s=:v:all\right	!	!	!	!	!	!	!	!	!	!	!	!	!
!	!	!	!	!	!	!	!LO:N:vis=00	!	!	!	!	!	!LO:N:vis=00	!	!LO:N:vis=00	!LO:N:vis=00
4G\	.	.	2.ryy	8c/L	(8ee\L	.	0.r	.	8c\L	.	8e\L	mun-	0.r	.	0.r	0.r
.	.	.	.	8B/J	8dd\J)	.	.	.	8B\J	.	8d\J	.	.	.	.	.
8r	.	.	.	8r	8r	.	.	.	4d\	-di	4f\	-di	.	.	.	.
8G\L	.	.	.	8d/L	8ff\L	.	.	.	.	.	.	.	.	.	.	.
8G\	.	.	.	8d/	8ff\	.	.	.	8r	.	8r	.	.	.	.	.
8G\J	.	.	.	8d/J	8ff\J	.	.	.	8d\	pec-	8f\	qui	.	.	.	.
!	!	!	!	!	!	!	!	!	!LO:LB:g=original	!	!	!	!	!	!	!
=6	=6	=6	=6	=6	=6	=6	=6	=6	=6	=6	=6	=6	=6	=6	=6	=6
4C/	4 2	.	2.ryy	8d/L	(8ff\L	.	.	.	8d\L	-ca-	8f\L	tol-	.	.	.	.
.	.	.	.	8c/J	8ee\J)	.	.	.	8c\J	.	8e\J	.	.	.	.	.
8r	.	.	.	8r	8r	.	.	.	4e\	-ta	4g\	-lis	.	.	.	.
8C/L	3 1	.	.	8e/L	8gg\L	.	.	.	.	.	.	.	.	.	.	.
8C/	.	.	.	8e/	8gg\	.	.	.	8r	.	8r	.	.	.	.	.
8C/J	.	.	.	8e/J	8gg\J	.	.	.	8e\	pec-	8g\	pec-	.	.	.	.
!	!	!	!	!	!	!	!	!	!	!	!LO:LB:g=original	!	!	!	!	!
=7	=7	=7	=7	=7	=7	=7	=7	=7	=7	=7	=7	=7	=7	=7	=7	=7
4C/	.	.	2.ryy	8e/L	8gg\L	.	.	.	8e\L	-ca-	8g\L	-ca-	.	.	.	.
.	.	.	.	16f/L	16aa\L	.	.	.	16f\L	.	16a\L	.	.	.	.	.
.	.	.	.	16e/JJ	16gg\JJ	.	.	.	16e\JJ	.	16g\JJ	.	.	.	.	.
!	!	!	!	!	!LO:LB:g=original	!	!	!	!	!	!	!	!	!	!	!
4BB/	6 5	.	.	(8e/L	(8gg\L	.	.	.	8e\L	.	8g\L	.	.	.	.	.
.	.	.	.	8d/)	8ff\	.	.	.	8d\	.	8f\	.	.	.	.	.
4C/	.	.	.	(8d/	8ff\	.	.	.	8d\	-ta	8f\	-ta	.	.	.	.
.	.	.	.	8c/J)	8ee\J)	.	.	.	8c\J	.	8e\J	.	.	.	.	.
=8	=8	=8	=8	=8	=8	=8	=8	=8	=8	=8	=8	=8	=8	=8	=8	=8
4G\	4	.	2.ryy	8c/L	8.ee\L	.	.	.	8.c\L	mun-	8.e\L	mun-	.	.	.	.
.	.	.	.	16B/L	.	.	.	.	.	.	.	.	.	.	.	.
.	.	.	.	16c/JJ	(32dd\LL	.	.	.	32B\LL	.	32d\LL	.	.	.	.	.
.	.	.	.	.	32ee\JJJ)	.	.	.	32c\JJJ	.	32e\JJJ	.	.	.	.	.
!	!	!	!	!LO:LB:g=original	!	!	!	!	!	!	!	!	!	!	!	!
4G\	3	.	.	8B/L	8dd/L	.	.	.	4B\	-di	4d\	-di	.	.	.	.
.	.	.	.	8B/	8g/	f	.	.	.	.	.	.	.	.	.	.
4r	.	.	.	8B/	8g/	.	.	.	4r	.	4r	.	.	.	.	.
.	.	.	.	8c/J	8g/J	.	.	.	.	.	.	.	.	.	.	.
!LO:LB:g=original	!	!	!	!	!	!	!	!	!	!	!	!	!	!	!	!
=9	=9	=9	=9	=9	=9	=9	=9	=9	=9	=9	=9	=9	=9	=9	=9	=9
!LO:TX:a:t=1	!	!	!LO:TX:a:t=1	!	!	!	!	!	!	!	!	!	!	!	!	!
!LO:TX:a:t=Solo.	!	!	!	!	!	!	!LO:N:vis=00	!	!	!	!	!	!LO:N:vis=00	!	!LO:N:vis=00	!LO:N:vis=00
2.r	.	.	2.r	4G/	4G/	p	0.r	.	(16B\LL	Mi-	16d\LL	Mi-	0.r	.	0.r	0.r
.	.	.	.	.	.	.	.	.	16c\)	.	16e\	.	.	.	.	.
.	.	.	.	.	.	.	.	.	(16c\	.	16e\	-ſe-	.	.	.	.
.	.	.	.	.	.	.	.	.	16d\JJ)	.	16f\JJ	.	.	.	.	.
.	.	.	.	4G/	4G/	.	.	.	(16d\LL	-se-	16f\LL	-re-	.	.	.	.
.	.	.	.	.	.	.	.	.	16c\)	.	16e\	.	.	.	.	.
.	.	.	.	.	.	.	.	.	(16c\	-re-	16e\	.	.	.	.	.
.	.	.	.	.	.	.	.	.	16B\JJ)	.	16d\JJ	.	.	.	.	.
.	.	.	.	4G/	4G/	.	.	.	4B\	-re	4d\	-re	.	.	.	.
=10	=10	=10	=10	=10	=10	=10	=10	=10	=10	=10	=10	=10	=10	=10	=10	=10
!	!	!	!	!	!	!	!	!	!LO:TX:a:t=1	!	!LO:TX:a:t=1	!	!	!	!	!
16B\LL	.	.	8dd\L	4G/	4G/	.	.	.	2.r	.	2.r	.	.	.	.	.
16G\	.	.	.	.	.	.	.	.	.	.	.	.	.	.	.	.
16c\	.	.	8ee\	.	.	.	.	.	.	.	.	.	.	.	.	.
16G\JJ	.	.	.	.	.	.	.	.	.	.	.	.	.	.	.	.
16d\LL	.	.	8ff\	4G/	4G/	.	.	.	.	.	.	.	.	.	.	.
16G\	.	.	.	.	.	.	.	.	.	.	.	.	.	.	.	.
16c\	.	.	8ee\J	.	.	.	.	.	.	.	.	.	.	.	.	.
16G\JJ	.	.	.	.	.	.	.	.	.	.	.	.	.	.	.	.
4G\ 4B\	.	.	4dd\	4G/	4G/	.	.	.	.	.	.	.	.	.	.	.
=11	=11	=11	=11	=11	=11	=11	=11	=11	=11	=11	=11	=11	=11	=11	=11	=11
!LO:TX:a:t=1	!	!	!LO:TX:a:t=1	!	!	!	!	!	!	!	!	!	!	!	!	!
2.r	.	.	2.r	4G/	4G/	.	.	.	(16c\LL	no-	16e\LL	Mi-	.	.	.	.
.	.	.	.	.	.	.	.	.	16d\)	.	16f\	.	.	.	.	.
.	.	.	.	.	.	.	.	.	(16d\	.	16f\	-ſe-	.	.	.	.
.	.	.	.	.	.	.	.	.	16e\JJ)	.	16g\JJ	.	.	.	.	.
.	.	.	.	4G/	4G/	.	.	.	(16e\LL	-bis	16g\LL	-re-	.	.	.	.
.	.	.	.	.	.	.	.	.	16d\)	.	16f\	.	.	.	.	.
.	.	.	.	.	.	.	.	.	(16d\	.	16f\	.	.	.	.	.
.	.	.	.	.	.	.	.	.	16c\JJ)	.	16e\JJ	.	.	.	.	.
!	!	!	!	!	!	!	!	!	!LO:LB:g=original	!	!	!	!	!	!	!
.	.	.	.	4G/	4G/	.	.	.	4c\	.	4e\	-re	.	.	.	.
=12	=12	=12	=12	=12	=12	=12	=12	=12	=12	=12	=12	=12	=12	=12	=12	=12
!	!	!	!	!	!	!	!	!	!LO:TX:a:t=1	!	!LO:TX:a:t=1	!	!	!	!	!
16c\LL	.	.	8ee\L	4G/	4G/	.	.	.	2.r	.	2.r	.	.	.	.	.
16G\	.	.	.	.	.	.	.	.	.	.	.	.	.	.	.	.
16d\	.	.	8ff\	.	.	.	.	.	.	.	.	.	.	.	.	.
16G\JJ	.	.	.	.	.	.	.	.	.	.	.	.	.	.	.	.
16e\LL	.	.	8gg\	4G/	4G/	.	.	.	.	.	.	.	.	.	.	.
16G\	.	.	.	.	.	.	.	.	.	.	.	.	.	.	.	.
16d\	.	.	8ff\J	.	.	.	.	.	.	.	.	.	.	.	.	.
16G\JJ	.	.	.	.	.	.	.	.	.	.	.	.	.	.	.	.
4G\ 4c\	.	.	4ee\	4G/	4G/	.	.	.	.	.	.	.	.	.	.	.
=13	=13	=13	=13	=13	=13	=13	=13	=13	=13	=13	=13	=13	=13	=13	=13	=13
!LO:TX:a:t=1	!	!	!LO:TX:a:t=1	!	!	!	!	!	!	!	!	!	!	!	!	!
!	!	!	!	!	!	!	!LO:N:vis=00	!	!	!	!	!	!LO:N:vis=00	!	!LO:N:vis=00	!LO:N:vis=00
2.r	.	.	2.r	4G/	4G/	.	0.r	.	16d\LL	Mi-	16f\LL	Mi-	0.r	.	0.r	0.r
.	.	.	.	.	.	.	.	.	16e\	.	16g\	.	.	.	.	.
.	.	.	.	.	.	.	.	.	16e\	.	16g\	-ſe-	.	.	.	.
.	.	.	.	.	.	.	.	.	16f\JJ	.	16a\JJ	.	.	.	.	.
.	.	.	.	4G/	4G/	.	.	.	16f\LL	-se-	16a\LL	-re-	.	.	.	.
.	.	.	.	.	.	.	.	.	16e\	.	16g\	.	.	.	.	.
.	.	.	.	.	.	.	.	.	16e\	-re-	16g\	.	.	.	.	.
.	.	.	.	.	.	.	.	.	16d\JJ	.	16f\JJ	.	.	.	.	.
.	.	.	.	4G/	4G/	.	.	.	4d\	-re	4f\	-re	.	.	.	.
!	!	!	!	!	!	!	!	!	!	!	!LO:LB:g=original	!	!	!	!	!
=14	=14	=14	=14	=14	=14	=14	=14	=14	=14	=14	=14	=14	=14	=14	=14	=14
!	!	!	!	!	!	!	!	!	!LO:TX:a:t=1	!	!LO:TX:a:t=1	!	!	!	!	!
16d\LL	.	.	8ff\L	4G/	4G/	.	.	.	2.r	.	2.r	.	.	.	.	.
16G\	.	.	.	.	.	.	.	.	.	.	.	.	.	.	.	.
16e\	.	.	8gg\	.	.	.	.	.	.	.	.	.	.	.	.	.
16G\JJ	.	.	.	.	.	.	.	.	.	.	.	.	.	.	.	.
16f\LL	.	.	8aa\	4G/	4G/	.	.	.	.	.	.	.	.	.	.	.
16G\	.	.	.	.	.	.	.	.	.	.	.	.	.	.	.	.
16e\	.	.	8gg\J	.	.	.	.	.	.	.	.	.	.	.	.	.
16G\JJ	.	.	.	.	.	.	.	.	.	.	.	.	.	.	.	.
4G\ 4d\	.	.	4ff\	4G/	4G/	.	.	.	.	.	.	.	.	.	.	.
=15	=15	=15	=15	=15	=15	=15	=15	=15	=15	=15	=15	=15	=15	=15	=15	=15
!	!	!	!LO:TX:a:t=1	!	!	!	!	!	!	!	!	!	!	!	!	!
4C\	.	.	2.r	8c/L	8ee\L	f	.	.	8c\L	no-	8e\L	Mi-	.	.	.	.
.	.	.	.	8e/J	8gg\J	.	.	.	8e\J	-bis	8g\J	.	.	.	.	.
4E\	6	.	.	16r	16r	.	.	.	16r	.	16r	.	.	.	.	.
.	.	.	.	16e/LL	(16gg\LL	.	.	.	16e\LL	Mi-	16g\LL	-ſe-	.	.	.	.
.	.	.	.	16f/	16aa\	.	.	.	16f\	.	16a\	.	.	.	.	.
.	.	.	.	16e/JJ	16gg\JJ)	.	.	.	16e\JJ	.	16g\JJ	.	.	.	.	.
4G\	.	.	.	16e/LL	(16gg\LL	.	.	.	16e\LL	-se-	16g\LL	.	.	.	.	.
.	.	.	.	16d/	16ff\	.	.	.	16d\	.	16f\	.	.	.	.	.
.	.	.	.	16c/	16ee\	.	.	.	16c\	-re-	16e\	.	.	.	.	.
.	.	.	.	16B/JJ	16dd\JJ)	.	.	.	16B\JJ	.	16d\JJ	.	.	.	.	.
!	!	!	!	!	!LO:LB:g=original	!	!	!	!	!	!	!	!	!	!	!
=16	=16	=16	=16	=16	=16	=16	=16	=16	=16	=16	=16	=16	=16	=16	=16	=16
!LO:TX:a:t=P:mixed beam:problem	!	!	!	!	!	!	!	!	!	!	!	!	!	!	!	!
8A\L	6	.	2.r	8c/L	8ee\L	.	.	.	8c\L	-re	8e\L	-re-	.	.	.	.
8F\	.	.	.	8e/J	8gg\J	.	.	.	8e\J	.	8g\J	.	.	.	.	.
8G\	4	.	.	16r	16r	.	.	.	16r	.	16r	.	.	.	.	.
.	.	.	.	16e/LL	(16gg\LL	.	.	.	16e\LL	no-	16g\LL	-re	.	.	.	.
!	!	!	!	!LO:SIC:s=:v:16f	!	!	!	!	!	!	!	!	!	!	!	!
8G\	.	.	.	16g/	16aa\	.	.	.	16f\	.	16a\	.	.	.	.	.
!	!	!	!	!LO:SIC:s=:v:16e	!	!	!	!	!	!	!	!	!	!	!	!
.	.	.	.	16f/JJ	16gg\JJ)	.	.	.	16e\JJ	.	16g\JJ	.	.	.	.	.
8GG/	3	.	.	16e/LL	(16gg\LL	.	.	.	16e\LL	.	16g\LL	.	.	.	.	.
.	.	.	.	16d/	16ff\	.	.	.	16d\	.	16f\	.	.	.	.	.
8GG/J	.	.	.	16c/	16ee\	.	.	.	16c\	-bis	16e\	.	.	.	.	.
.	.	.	.	16B/JJ	16dd\JJ)	.	.	.	16B\JJ	.	16d\JJ	.	.	.	.	.
=17	=17	=17	=17	=17	=17	=17	=17	=17	=17	=17	=17	=17	=17	=17	=17	=17
!	!	!	!	!	!	!	!LO:N:vis=0	!	!	!	!	!	!LO:N:vis=0	!	!LO:N:vis=0	!LO:N:vis=0
8A\L	6	.	2.r	8c/L	(8ee\L	.	1.r	.	8c\L	no-	8e\L	no-	1.r	.	1.r	1.r
!LO:TX:a:t=P:mixed beam:problem	!	!	!	!	!	!	!	!	!	!	!	!	!	!	!	!
8F\	.	.	.	8d/J	8ff\)	.	.	.	8d\J	.	8f\J	.	.	.	.	.
!	!	!	!	!LO:LB:g=original	!	!	!	!	!	!	!	!	!	!	!	!
8G\	4	.	.	8c/L	8ee'\	.	.	.	4c\	.	4e\	.	.	.	.	.
8G\	.	.	.	8c/	8ee'\	.	.	.	.	.	.	.	.	.	.	.
8GG/	3	.	.	8B/	8dd'\	.	.	.	4B\	.	4d\	.	.	.	.	.
8GG/J	.	.	.	8B/J	8dd'\J	.	.	.	.	.	.	.	.	.	.	.
!LO:LB:g=original	!	!	!	!	!	!	!	!	!	!	!	!	!	!	!	!
=18	=18	=18	=18	=18	=18	=18	=18	=18	=18	=18	=18	=18	=18	=18	=18	=18
!	!	!	!	!	!LO:TX:a:t=P:mixed beam:problem	!	!	!	!	!	!	!	!	!	!	!
4C/	.	.	2.ryy	16c/LL	16cc\LL	.	.	.	4c\	-bis	4c\	-bis	.	.	.	.
.	.	.	.	16G/	16G/	.	.	.	.	.	.	.	.	.	.	.
.	.	.	.	16A/	16A/	.	.	.	.	.	.	.	.	.	.	.
.	.	.	.	16B/JJ	16B/JJ	.	.	.	.	.	.	.	.	.	.	.
4r	.	.	.	16c/LL	(16c/LL	.	.	.	4r	.	4r	.	.	.	.	.
.	.	.	.	16G/	16G/)	.	.	.	.	.	.	.	.	.	.	.
.	.	.	.	16e/	(16e/	.	.	.	.	.	.	.	.	.	.	.
.	.	.	.	16c/JJ	16c/JJ)	.	.	.	.	.	.	.	.	.	.	.
4r	.	.	.	16g/LL	(16g/LL	.	.	.	4r	.	4r	.	.	.	.	.
.	.	.	.	16e/	16e/)	.	.	.	.	.	.	.	.	.	.	.
.	.	.	.	16cc/	(16cc/	.	.	.	.	.	.	.	.	.	.	.
.	.	.	.	16g/JJ	16g/JJ)	.	.	.	.	.	.	.	.	.	.	.
!	!	!	!	!	!	!	!	!	!LO:LB:g=original	!	!	!	!	!	!	!
=19	=19	=19	=19	=19	=19	=19	=19	=19	=19	=19	=19	=19	=19	=19	=19	=19
!	!	!	!LO:TX:rj:a:t=Tutti	!	!	!	!LO:SIC:o:s=:v:all\right	!	!	!	!	!	!LO:SIC:o:s=:v:all\rightglobal	!	!LO:SIC:o:s=:v:all\right	!LO:SIC:o:s=:v:all\right
8C/L	5 3	.	2.ryy	4.g/	4.ee\	.	2c\	A-	2e\	A-	4.g\	A-	4.ee\	A-	4.ee\	4.gg\
8C/	.	.	.	.	.	.	.	.	.	.	.	.	.	.	.	.
8C/	4 2	.	.	.	.	.	.	.	.	.	.	.	.	.	.	.
8C/	.	.	.	8f/	8dd\	.	.	.	.	.	8f\	.	8dd\	.	8dd\	8ff\
8C/	3 1	.	.	4e/	4cc\	.	4c\	-gnus	4c\	-gnus	4e\	-gnus	4cc\	-gnus	4cc\	4ee\
8C/J	.	.	.	.	.	.	.	.	.	.	.	.	.	.	.	.
=20	=20	=20	=20	=20	=20	=20	=20	=20	=20	=20	=20	=20	=20	=20	=20	=20
8C/L	4 2	.	2.ryy	8f/L	(8dd\L	.	4c\	De-	4c\	De-	8f\L	De-	8dd\L	De-	8dd\L	8ff\L
8C/	.	.	.	8g/J	8ee\J)	.	.	.	.	.	8g\J	.	8ee\J	.	8ee\J	8gg\J
8C/	5 3	.	.	4a/	4ff\	.	4c\	-i	4c\	-I	4a\	-i	4ff\	-i	4ff\	4aa\
8C/	.	.	.	.	.	.	.	.	.	.	.	.	.	.	.	.
8C/	6 4	.	.	4r	4r	.	4r	.	4r	.	4r	.	4r	.	4r	4r
8C/J	.	.	.	.	.	.	.	.	.	.	.	.	.	.	.	.
=21	=21	=21	=21	=21	=21	=21	=21	=21	=21	=21	=21	=21	=21	=21	=21	=21
*	*	*	*	*	*	*	*	*	*	*	*	*	*	*	*2\right	*2\right
!	!	!	!	!LO:SIC:o:s=:v:all\right	!	!	!	!	!	!	!	!	!	!	!	!
8C/L	_ _	.	2.ryy	4.a\	4.ff\	.	4c\	qui	4f\	qui	4.a\	A-	4ff\	qui	2.ff\	2.aa\
8C/	.	.	.	.	.	.	.	.	.	.	.	.	.	.	.	.
8C/	.	.	.	.	.	.	4c\	tol-	4f\	tol-	.	.	4ff\	tol-	.	.
8C/	.	.	.	8a\	8ff\L	.	.	.	.	.	8a\	.	.	.	.	.
8C/	.	.	.	8cc\L	8aa\	.	8c\	-lis	8f\	-lis	8a\L	-gnus	8ff\	-lis	.	.
8C/J	.	.	.	8a\J	8ff\J	.	8c\	pec-	8f\	.	8a\J	.	8ff\	pec-	.	.
!	!	!	!	!	!LO:LB:g=original	!	!	!	!	!	!LO:LB:g=original	!	!	!	!	!
=22	=22	=22	=22	=22	=22	=22	=22	=22	=22	=22	=22	=22	=22	=22	=22	=22
8C/L	5 3	.	2.ryy	8g/L	(8ee\L	.	4c\	-ca-	4e\	pec-	8g\L	De-	8ee\L	-ca-	8ee\L	8gg\L
8C/	.	.	.	8f/J	8dd\J)	.	.	.	.	.	8f\J	.	8dd\J	.	8dd\J	8ff\J
8C/	4 2	.	.	4e/	4cc\	.	4C/	-ta	4c\	-ca-	4e\	-i	4cc\	-ta	4cc\	4ee\
8C/	3 1	.	.	.	.	.	.	.	.	.	.	.	.	.	.	.
8C/	_ _	.	.	8r	8r	.	8r	.	8r	.	8r	.	8r	.	4r	4r
8C/J	.	.	.	8e/	8cc\	.	8C/	pec-	8c\	-ta	8e\	qui	8cc\	pec-	.	.
!	!	!	!	!	!	!	!	!	!	!	!	!	!	!	!	!LO:LB:g=original
=23	=23	=23	=23	=23	=23	=23	=23	=23	=23	=23	=23	=23	=23	=23	=23	=23
4G\	4	.	2.ryy	8e/L	8cc\L	.	4G\	-ca-	8c\L	pec-	8e\L	tol-	8cc\L	-ca-	8cc\L	8dd\L
.	3	.	.	8d/J	8b\J	.	.	.	8B\J	.	8d\J	.	8b\J	.	8g\J	8cc\J
8r	.	.	.	8r	8r	.	4G\	-ta	4B\	-ca-	4f\	-lis	4dd\	-ta	4cc\	4ff\
8G\L	7 5	.	.	8f/L	8dd\L	.	.	.	.	.	.	.	.	.	.	.
8G\	.	.	.	8f/	8dd\	.	8r	.	8r	.	8r	.	8r	.	4r	4r
8G\J	.	.	.	8f/J	8dd\J	.	8G\	pec-	8B\	-ta	8f\	pec-	8dd\	mun-	.	.
!	!	!	!	!	!	!	!	!	!	!	!	!	!LO:LB:g=original	!	!LO:LB:g=original	!
=24	=24	=24	=24	=24	=24	=24	=24	=24	=24	=24	=24	=24	=24	=24	=24	=24
4C/	4 2	.	2.ryy	8f/L	8dd\L	.	4c\	-ca-	8B\L	pec-	8f\L	-ca-	8dd\L	-di	8dd\L	8ff\L
.	3 1	.	.	8e/J	8cc\J	.	.	.	8c\J	-ca-	8e\J	.	8cc\J	.	8cc\J	8ee\J
8r	.	.	.	8r	8r	.	4c\	-ta	4c\	-ta	4g\	-ta	4ee\	pec-	4ee\	4gg\
8C/L	5 3	.	.	8g/L	8ee\L	.	.	.	.	.	.	.	.	.	.	.
8C/	.	.	.	8g/	8ee\	.	8r	.	8r	.	8r	.	8r	.	4r	4r
8C/J	.	.	.	8g/J	8ee\J	.	8c\	pec	8e\	pec-	8g\	pec-	8ee\	-ca-	.	.
!	!	!	!	!LO:LB:g=original	!	!	!LO:LB:g=original	!	!	!	!	!	!	!	!	!
=25	=25	=25	=25	=25	=25	=25	=25	=25	=25	=25	=25	=25	=25	=25	=25	=25
4C/	.	.	2.ryy	8g/L	8ee\L	.	4c\	pec-	4c\	-ca-	8g\L	-ca-	8ee\L	.	4ee\	4gg\
.	.	.	.	16a/L	16ff\L	.	.	.	.	.	16a\L	.	16ff\L	.	.	.
.	.	.	.	16g/JJ	16ee\JJ	.	.	.	.	.	16g\JJ	.	16ee\JJ	.	.	.
4BB/	6 5	.	.	8g/L	(8ee\L	.	4B\	-ca-	4d\	.	8g\L	.	8ee\	-ta	8ee\L	8gg\L
.	.	.	.	8f/	8dd\)	.	.	.	.	.	8f\	.	8dd\	.	8dd\	8ff\
4C/	.	.	.	8f/	(8dd\	.	4c\	-ta	4c\	-ta	8f\	-ta	8dd\	.	8dd\	8ff\
.	.	.	.	8e/J	8cc\J)	.	.	.	.	.	8e\J	.	8cc\	.	8cc\J	8ee\J
=26	=26	=26	=26	=26	=26	=26	=26	=26	=26	=26	=26	=26	=26	=26	=26	=26
4G\	4	.	2.ryy	8.e/L	8.cc\L	.	4G\	mun-	4c\	mun-	8.e\L	mun-	8.cc\L	mun-	4cc\	4ee\
.	.	.	.	32d/LL	32b\LL	.	.	.	.	.	32d\LL	.	32b\LL	.	.	.
.	.	.	.	32e/JJJ	32cc\JJJ	.	.	.	.	.	32e\JJJ	.	32cc\JJJ	.	.	.
!	!	!	!	!LO:TX:a:t=P:mixed beam:problem	!	!	!	!	!	!	!	!	!	!	!	!
4GG/	3	.	.	16d/LL	16b\LL	.	4G\	-di	4G/	-di	4d\	-di	4b\	-di	4g/	4dd\
.	.	.	.	16gg\	16gg\	.	.	.	.	.	.	.	.	.	.	.
.	.	.	.	16dd\	16dd\	.	.	.	.	.	.	.	.	.	.	.
.	.	.	.	16b\JJ	16b\JJ	.	.	.	.	.	.	.	.	.	.	.
4r	.	.	.	4g/	4g/	p	4r	.	4r	.	4r	.	4r	.	4r	4r
!LO:LB:g=original	!	!	!	!	!	!	!	!	!LO:LB:g=original	!	!	!	!	!	!	!
=27	=27	=27	=27	=27	=27	=27	=27	=27	=27	=27	=27	=27	=27	=27	=27	=27
!LO:TX:a:t=1	!	!	!LO:TX:a:t=1	!	!	!	!LO:TX:a:t=6	!	!LO:TX:a:t=6	!	!	!	!	!	!LO:TX:a:t=7	!LO:TX:a:t=7
!	!	!	!	!	!	!	!LO:N:vis=00	!	!LO:N:vis=00	!	!	!	!	!	!LO:N:vis=00	!LO:N:vis=00
2.r	.	.	2.r	4G/	4G/	.	0.r	.	0.r	.	16d\LL	Mi-	16b\LL	Mi-	0.r	0.r
.	.	.	.	.	.	.	.	.	.	.	16e\	.	16cc\JJ	.	.	.
.	.	.	.	.	.	.	.	.	.	.	16e\	-ſe-	16cc\LL	-ſe-	.	.
.	.	.	.	.	.	.	.	.	.	.	16f\JJ	.	16dd\JJ	.	.	.
.	.	.	.	4G/	4G/	.	.	.	.	.	16f\LL	-re-	16dd\LL	-re-	.	.
.	.	.	.	.	.	.	.	.	.	.	16e\	.	16cc\JJ	.	.	.
.	.	.	.	.	.	.	.	.	.	.	16e\	.	16cc\LL	-re	.	.
.	.	.	.	.	.	.	.	.	.	.	16d\JJ	.	16b\JJ	.	.	.
.	.	.	.	4G/	4G/	.	.	.	.	.	4d\	-re	4b\	.	.	.
=28	=28	=28	=28	=28	=28	=28	=28	=28	=28	=28	=28	=28	=28	=28	=28	=28
!LO:TX:a:t=Solo.	!	!	!	!	!	!	!	!	!	!	!LO:TX:a:t=1	!	!LO:TX:a:t=1	!	!	!
16B\LL	.	.	8dd\L	4G/	4G/	.	.	.	.	.	2.r	.	2.r	.	.	.
16G\	.	.	.	.	.	.	.	.	.	.	.	.	.	.	.	.
16c\	.	.	8ee\	.	.	.	.	.	.	.	.	.	.	.	.	.
16G\JJ	.	.	.	.	.	.	.	.	.	.	.	.	.	.	.	.
16d\LL	.	.	8ff\	4G/	4G/	.	.	.	.	.	.	.	.	.	.	.
16G\	.	.	.	.	.	.	.	.	.	.	.	.	.	.	.	.
16c\	.	.	8ee\J	.	.	.	.	.	.	.	.	.	.	.	.	.
16G\JJ	.	.	.	.	.	.	.	.	.	.	.	.	.	.	.	.
4G\ 4B\	.	.	4dd\	4G/	4G/	.	.	.	.	.	.	.	.	.	.	.
!	!	!	!	!	!	!	!	!	!	!	!LO:LB:g=original	!	!	!	!	!
=29	=29	=29	=29	=29	=29	=29	=29	=29	=29	=29	=29	=29	=29	=29	=29	=29
!LO:TX:a:t=1	!	!	!LO:TX:a:t=1	!	!	!	!	!	!	!	!	!	!	!	!	!
2.r	.	.	2.r	4G/	4G/	.	.	.	.	.	16e\LL	Mi-	16cc\LL	mi-	.	.
.	.	.	.	.	.	.	.	.	.	.	16f\	.	16dd\	.	.	.
.	.	.	.	.	.	.	.	.	.	.	16f\	-ſe-	16dd\	-ſe-	.	.
.	.	.	.	.	.	.	.	.	.	.	16g\JJ	.	16ee\JJ	.	.	.
.	.	.	.	4G/	4G/	.	.	.	.	.	16g\LL	-re-	16ee\LL	-re-	.	.
.	.	.	.	.	.	.	.	.	.	.	16f\	.	16dd\	.	.	.
.	.	.	.	.	.	.	.	.	.	.	16f\	.	16dd\	-re	.	.
.	.	.	.	.	.	.	.	.	.	.	16e\JJ	.	16cc\JJ	.	.	.
.	.	.	.	4G/	4G/	.	.	.	.	.	4e\	-re	4cc\	.	.	.
!	!	!	!	!	!LO:LB:g=original	!	!	!	!	!	!	!	!LO:LB:g=original	!	!	!
=30	=30	=30	=30	=30	=30	=30	=30	=30	=30	=30	=30	=30	=30	=30	=30	=30
!	!	!	!	!	!	!	!	!	!	!	!LO:TX:a:t=1	!	!LO:TX:a:t=1	!	!	!
16c\LL	.	.	8ee\L	4G/	4G/	.	.	.	.	.	2.r	.	2.r	.	.	.
16G\	.	.	.	.	.	.	.	.	.	.	.	.	.	.	.	.
16d\	.	.	8ff\	.	.	.	.	.	.	.	.	.	.	.	.	.
16G\JJ	.	.	.	.	.	.	.	.	.	.	.	.	.	.	.	.
16e\LL	.	.	8gg\	4G/	4G/	.	.	.	.	.	.	.	.	.	.	.
16G\	.	.	.	.	.	.	.	.	.	.	.	.	.	.	.	.
16d\	.	.	8ff\J	.	.	.	.	.	.	.	.	.	.	.	.	.
16G\JJ	.	.	.	.	.	.	.	.	.	.	.	.	.	.	.	.
4G\ 4c\	.	.	4ee\	4G/	4G/	.	.	.	.	.	.	.	.	.	.	.
=31	=31	=31	=31	=31	=31	=31	=31	=31	=31	=31	=31	=31	=31	=31	=31	=31
!LO:TX:a:t=1	!	!	!LO:TX:a:t=1	!	!	!	!	!	!	!	!	!	!	!	!	!
!	!	!	!	!	!	!	!LO:N:vis=0	!	!LO:N:vis=0	!	!	!	!	!	!LO:N:vis=0	!LO:N:vis=0
2.r	.	.	2.r	4G/	4G/	.	1.r	.	1.r	.	16f\LL	Mi-	16dd\LL	mi-	1.r	1.r
.	.	.	.	.	.	.	.	.	.	.	16g\	.	16ee\	.	.	.
.	.	.	.	.	.	.	.	.	.	.	16g\	-ſe-	16ee\	-ſe-	.	.
.	.	.	.	.	.	.	.	.	.	.	16a\JJ	.	16ff\JJ	.	.	.
.	.	.	.	4G/	4G/	.	.	.	.	.	16a\LL	-re-	16ff\LL	-re-	.	.
.	.	.	.	.	.	.	.	.	.	.	16g\	.	16ee\	.	.	.
.	.	.	.	.	.	.	.	.	.	.	16g\	.	16ee\	-re	.	.
.	.	.	.	.	.	.	.	.	.	.	16f\JJ	.	16dd\JJ	.	.	.
.	.	.	.	4G/	4G/	.	.	.	.	.	4f\	-re	4dd\	.	.	.
=32	=32	=32	=32	=32	=32	=32	=32	=32	=32	=32	=32	=32	=32	=32	=32	=32
!	!	!	!	!	!	!	!	!	!	!	!LO:TX:a:t=1	!	!LO:TX:a:t=1	!	!	!
16d\LL	.	.	8ff\L	4G/	4G/	.	.	.	.	.	2.r	.	2.r	.	.	.
16G\	.	.	.	.	.	.	.	.	.	.	.	.	.	.	.	.
16e\	.	.	8gg\	.	.	.	.	.	.	.	.	.	.	.	.	.
16G\JJ	.	.	.	.	.	.	.	.	.	.	.	.	.	.	.	.
16f\LL	.	.	8aa\	4G/	4G/	.	.	.	.	.	.	.	.	.	.	.
16G\	.	.	.	.	.	.	.	.	.	.	.	.	.	.	.	.
16e\	.	.	8gg\J	.	.	.	.	.	.	.	.	.	.	.	.	.
16G\JJ	.	.	.	.	.	.	.	.	.	.	.	.	.	.	.	.
4G\ 4d\	.	.	4ff\	4G/	4G/	.	.	.	.	.	.	.	.	.	.	.
=33	=33	=33	=33	=33	=33	=33	=33	=33	=33	=33	=33	=33	=33	=33	=33	=33
!LO:TX:a:t=Tutti	!	!	!	!	!	!LO:DY:rj	!	!	!	!	!	!	!	!	!	!
8C\L	.	.	2.r	8g/L	8ee\L	f	4C\	Mi-	4e\	Mi-	4g\	A-	4ee\	Mi-	2.r	2.r
8C\	.	.	.	8g/	8ee\	.	.	.	.	.	.	.	.	.	.	.
8G\	.	.	.	8f/	8dd\	.	4G\	-ſe-	4B\	-ſe-	4f\	.	4dd\	-ſe-	.	.
8G\	.	.	.	8f/	8dd\	.	.	.	.	.	.	.	.	.	.	.
8A\	.	.	.	8e/	8cc\	.	4A\	.	4c\	.	4e\	-gnus	4cc\	.	.	.
8A\J	.	.	.	8e/J	8cc\J	.	.	.	.	.	.	.	.	.	.	.
=34	=34	=34	=34	=34	=34	=34	=34	=34	=34	=34	=34	=34	=34	=34	=34	=34
!LO:TX:a:t=P:mixed beam:problem	!	!	!	!	!	!	!	!	!	!	!	!	!	!	!	!
8F\L	6	.	2.ryy	8a/L	8dd\L	.	4F\	-re-	4d\	-re-	4f\	De-	4dd\	-re-	4r	4r
8F\	.	.	.	8a/	8dd\	.	.	.	.	.	.	.	.	.	.	.
8G\	4	.	.	8e/	8cc\	.	4G\	-re	4c\	.	4e\	.	4cc\	-re	4cc\	4ee\
8G\	.	.	.	8e/	8cc\	.	.	.	.	.	.	.	.	.	.	.
8GG/	3	.	.	8d/	8b\	.	4GG/	.	4d\	-re	4d\	-i	4b\	.	4g/	4dd\
8GG/J	.	.	.	8d/J	8b\J	.	.	.	.	.	.	.	.	.	.	.
!LO:LB:g=original	!	!	!	!LO:LB:g=original	!	!	!	!	!	!	!	!	!	!	!	!
=35	=35	=35	=35	=35	=35	=35	=35	=35	=35	=35	=35	=35	=35	=35	=35	=35
4C/	.	.	2.ryy	4e/	4cc\	.	4C/	no-	4c\	no-	4e\	qui	4cc\	no-	4g\	4cc\
4C/	.	.	.	4g/	4ee\	.	4C/	-bis	2G/	-bis	4e\	tol-	4cc\	.	4cc\	4ee\
4BB/	6	.	.	4g/	4ff\	.	4BB/	no-	.	.	4f\	-lis	4dd\	-bis	4dd\	4ff\
=36	=36	=36	=36	=36	=36	=36	=36	=36	=36	=36	=36	=36	=36	=36	=36	=36
4C/	.	.	2.ryy	4g/	4ee\	.	4C/	.	4G/	no-	4e\	tol-	4cc\	no-	4cc\	4ee\
4GG/	.	.	.	8g/L	8dd\L	.	4G\	-bis	4G/	-bis	4d\	-lis	4b\	-bis	4g\	4dd\
.	.	.	.	8f/	8dd\	.	.	.	.	.	.	.	.	.	.	.
4r	.	.	.	8e/	8cc\	.	4r	.	4r	.	4r	.	4r	.	4r	4r
.	.	.	.	8d/J	8b\J	.	.	.	.	.	.	.	.	.	.	.
!	!	!	!	!	!	!	!	!	!	!	!	!	!	!	!	!LO:LB:g=original
=37	=37	=37	=37	=37	=37	=37	=37	=37	=37	=37	=37	=37	=37	=37	=37	=37
!	!	!	!	!	!	!	!LO:TX:a:t=4.	!	!LO:TX:a:t=4	!	!LO:TX:a:t=4	!	!LO:TX:a:t=4	!	!LO:TX:a:t=4	!LO:TX:a:t=4
!LO:TX:b:t=pedali	!	!LO:DY:a:t=Piano	!	!	!	!	!LO:N:vis=00	!	!LO:N:vis=00	!	!LO:N:vis=00	!	!LO:N:Vis=00	!	!LO:N:vis=00	!LO:N:vis=00
4GG/	.	p	2.ryy	8e/L	8cc\L	.	0.r	.	0.r	.	0.r	.	0.r	.	0.r	0.r
.	.	.	.	8d/	8b\	.	.	.	.	.	.	.	.	.	.	.
4GG/	.	.	.	8d/	8b\	.	.	.	.	.	.	.	.	.	.	.
.	.	.	.	8b/J	8dd\J	.	.	.	.	.	.	.	.	.	.	.
4GG/	.	.	.	8c/L	8g/L	.	.	.	.	.	.	.	.	.	.	.
.	.	.	.	8A/J	8f#X/J	.	.	.	.	.	.	.	.	.	.	.
!	!	!	!	!	!LO:LB:g=original	!	!	!	!	!	!	!	!	!	!	!
=38	=38	=38	=38	=38	=38	=38	=38	=38	=38	=38	=38	=38	=38	=38	=38	=38
4GG/	.	.	2.ryy	4B/	4g/	.	.	.	.	.	.	.	.	.	.	.
4GG/	.	.	.	8B/L	8g/L	.	.	.	.	.	.	.	.	.	.	.
.	.	.	.	8d/	8b/	.	.	.	.	.	.	.	.	.	.	.
4GG/	.	.	.	8c/	8a/	.	.	.	.	.	.	.	.	.	.	.
.	.	.	.	8A/J	8f#X/J	.	.	.	.	.	.	.	.	.	.	.
=39	=39	=39	=39	=39	=39	=39	=39	=39	=39	=39	=39	=39	=39	=39	=39	=39
4GG/	.	.	2.ryy	4B/	4g/	.	.	.	.	.	.	.	.	.	.	.
4GG/	.	.	.	4B/	4g/	.	.	.	.	.	.	.	.	.	.	.
4GG/	.	.	.	4B/	4g/	.	.	.	.	.	.	.	.	.	.	.
=40	=40	=40	=40	=40	=40	=40	=40	=40	=40	=40	=40	=40	=40	=40	=40	=40
!	!	!	!LO:TX:a:B:t=Dona nobis ut Kyrie	!	!	!	!	!	!	!	!	!	!	!	!	!
4GG/	.	.	2.ryy	4B/	4g/	.	.	.	.	.	.	.	.	.	.	.
4r	.	.	.	4r	4r	.	.	.	.	.	.	.	.	.	.	.
4r	.	.	.	4r	4r	.	.	.	.	.	.	.	.	.	.	.
!	!	!	!	!LO:TX:b:B:t=Dona nobis ut Kyrie	!LO:TX:b:B:t=Dona nobis ut Kyrie	!	!LO:TX:b:B:t=Dona nobis ut Kyrie	!	!LO:TX:b:B:t=Dona nobis ut Kyrie.	!	!LO:TX:b:B:t=Dona nobis ut Kyrie.	!	!LO:TX:b:B:t=Dona nobis ut Kyrie&colon;	!	!LO:TX:b:B:t=Dona nobis ut Kyrie.	!LO:TX:b:B:t=Dona nobis ut Kyrie.
==	==;	==	==;	==;	==;	==	==;	==	==;	==	==;	==	==;	==	==;	==;
*-	*-	*-	*-	*-	*-	*-	*-	*-	*-	*-	*-	*-	*-	*-	*-	*-
!!!system-decoration: [(s1,s2)][(s3,s4,s5,s6)][(s7,s8)]{(s9,s10)}
!!!RDF**kern: > = above
!!!RDF**kern: < = below
!!!RDF**dynam: p = p.
!!!RDF**dynam: f = f.
!!!EED: Leszek Kubiak
!!!EST: 2020-11-24
!!!ENC: Andrzej Kubiczek
!!!END: 2020-06-07
